X:1
T:My Sheep Know My Voice
T:My Sheep Know My Voice
T:Isaiah Guyman Martin
T:Herbert Emery Buffum, 1905
T:Public Domain Courtesy of the Cyber Hymnal™
T:Public Domain Courtesy of the Cyber Hymnal™
C:Isaiah Guyman Martin
Z:Public Domain
Z:Courtesy of the Cyber Hymnal™
%%score ( 1 2 ) ( 3 4 )
L:1/8
Q:1/4=100
M:6/8
K:Bb
V:1 treble 
V:2 treble 
V:3 bass 
V:4 bass 
V:1
 [DF] | [DF][B,D][CE] [DF]2 [DF]/[DF]/ | [EG][B,E][EG] [DF]2 [DF] | [DF][CE][B,D] [CE][EG][CF] | %4
w: 1.~My|sheep hear My voice, and the|path that I take, They|fol- low wher- ev- er I|
w: 2.~My|sheep know My voice, and the|pas- tures of green, Where|I lead them so often to|
w: 3.~My|sheep know My voice, and the|val- ley of death Through|which I shall lead them some|
 [B,D]3- [B,D]2 ([DF]/[DF]/) | [DF][B,D][CE] [DF]2 ([DF]/[DF]/) | [EG][B,E][EG] [DF]2 [FB]/[FB]/ | %7
w: go; * My *|sheep know My voice and *|come at my call, But a|
w: feed; * My *|sheep know My voice and~the *|cool spark- ling stream Where be-|
w: day; * But *|no dan- ger nor harm *|can touch one of them, For|
 [FA][=EG][FA] [EB][EA][EB] | [Ec]3- [Ec]2 ||"^Refrain" [Fe] | d3- [Fd][Ec][DB] | F3- [DF]2 [FB] | %12
w: strang- er’s voice do they not|know. *|My|sheep know My voice,|and day by|
w: side its still wa- ters I|lead. *||||
w: I will be with them al-|way. *||||
 A3- ([EA][CE])[EG] | F3- [DF]2 [DF]/[DF]/ | G3- GA[EB] | F3 [DB]2 [DB] | B3- BA[_EB] | %17
w: * day * They|* a- bide in|* * the fold|and go not|* * a- stray,|
w: |||||
w: |||||
 c3- [Fc]2 [Fe] | d3- [Fd][Ec][Fd] | B3- BF[Fd] | c3- [Ec][DB][Ec] | d3- dB[Fd] | f3 fe[=Ad] | %23
w: They love Me|* be- cause I|* * have made|them my choice, And|* * they fol-|low My call for|
w: ||||||
w: ||||||
 e3- eB[_Gc] | [Fd]3 [Fd]2 [Ec] | [DB]6 |] %26
w: My * sheep know|My voice. *||
w: |||
w: |||
V:2
 x | x6 | x6 | x6 | x6 | x6 | x6 | x6 | x5 || x | (FFF) x3 | D2 D x3 | E E E x3 | D2 D x3 | %14
 (EEE E2) x | DDD x3 | (=EEE E2) x | FFF x3 | F F F x3 | (DDD D2) x | E E E x3 | (FFF F2) x | %22
 (_AAA A2) x | (_GGG G2) x | x6 | x6 |] %26
V:3
 [B,,B,] | [B,,B,][B,,F,][B,,F,] [B,,B,]2 [B,,B,]/[B,,B,]/ | [E,B,][E,G,][E,B,] [B,,B,]2 [B,,B,] | %3
w: ~|~ ~ ~ ~ ~ ~|~ ~ ~ ~ ~|
 [F,B,]F,F, [F,A,][F,A,][F,A,] | [B,,F,]3- [B,,F,]2 ([B,,B,]/[B,,B,]/) | %5
w: ~ ~ ~ ~ ~ ~|~ * ~ *|
 [B,,B,][B,,F,][B,,F,] [B,,B,]2 ([B,,B,]/[B,,B,]/) | [E,B,][E,G,][E,B,] [B,,B,]2 [B,,D]/[B,,D]/ | %7
w: ~ ~ ~ ~ ~ *|~ ~ ~ ~ ~ ~|
 [C,C][C,C][C,C] [C,G,][C,C][C,B,] | [F,A,]3- [F,A,]2 || [F,A,] | [B,,B,][B,,B,][B,,B,] [B,,B,]3 | %11
w: ~ ~ ~ ~ ~ ~|~ *|My|sheep know My voice,|
 [B,,B,]2 [B,,B,] [B,,B,]2 [D,B,] | [F,C][F,C][F,C] (C A,2) | %13
w: day by day, My|sheep know My voice *|
 [B,,B,]2 [B,,B,] [B,,B,]2 [B,,B,]/[B,,B,]/ | [E,B,][E,B,][E,B,] [E,B,]2 [G,B,] | %15
w: day by day, They a-|bide in the fold, They|
 B,B,B, B,2 [B,,B,] | [C,G,][C,G,][C,G,] [C,G,]2 [C,G,] | [F,A,][F,A,][F,A,] [F,A,]2 [F,A,] | %18
w: go not a- stray, A-|bide in the fold They|go not a- stray, They|
 [B,,B,][B,,B,][B,,B,] [B,,B,]2 [B,,B,] | [B,,F,][B,,F,][B,,F,] [B,,B,]2 [B,,B,] | %20
w: love Me be- cause I|made them My choice, They|
 [F,A,][F,A,][F,A,] [F,A,]2 [F,A,] | B,B,B, B,2 [B,,B,] | [D,B,][D,B,][D,B,] [D,B,]2 B, | %23
w: love Me be- cause I|made them My choice, They|fol- low My call, They|
 [E,B,][E,B,][E,B,] [E,B,]2 [E,B,] | [F,B,]3 [F,B,]2 F, | [B,,F,]6 |] %26
w: fol- low My call, My|sheep know my|voice.|
V:4
 x | x6 | x6 | x6 | x6 | x6 | x6 | x6 | x5 || x | x6 | x6 | x3 F,3 | x6 | x6 | B,B,B, B,2 x | x6 | %17
 x6 | x6 | x6 | x6 | x6 | x6 | x6 | x6 | x6 |] %26

